fonts/polwgo/uni0049.svg

<svg width="500" height="850" xmlns="http://www.w3.org/2000/svg" xmlns:svg="http://www.w3.org/2000/svg">
    <path d="M-125 0h-50v50l100 100h50v-50zm-350 100v50h50l100-100V0h-50z" />
    <path d="M-375 0h250v50h-250z" />
</svg>

<svg width="500" height="850" xmlns="http://www.w3.org/2000/svg" xmlns:svg="http://www.w3.org/2000/svg">
    <path
        d="M -375 0 L -475 100 L -475 150 L -425 150 L -325 50 L -175 50 L -75 150 L -25 150 L -25 100 L -125 0 L -175 0 L -325 0 L -375 0 z " />
</svg>
